static/img/kroki/09383e717d80a282ca79bc3f2c5cbb71.svg

<?xml version="1.0" encoding="us-ascii" standalone="no"?><svg xmlns="http://www.w3.org/2000/svg" xmlns:xlink="http://www.w3.org/1999/xlink" contentStyleType="text/css" height="732px" preserveAspectRatio="none" style="width:328px;height:732px;" version="1.1" viewBox="0 0 328 732" width="328px" zoomAndPan="magnify"><defs/><g><!--class kubernetes_csi_storage_capacity--><g id="elem_kubernetes_csi_storage_capacity"><rect codeLine="22" fill="#3D176E" height="39.7891" id="kubernetes_csi_storage_capacity" rx="2.5" ry="2.5" style="stroke:#000D19;stroke-width:0.5;" width="314" x="7" y="686.44"/><ellipse cx="22" cy="706.3345" fill="#ADD1B2" rx="11" ry="11" style="stroke:#181818;stroke-width:1.0;"/><path d="M24.9688,711.9752 Q24.3906,712.272 23.75,712.4127 Q23.1094,712.5689 22.4063,712.5689 Q19.9063,712.5689 18.5781,710.9283 Q17.2656,709.272 17.2656,706.147 Q17.2656,703.022 18.5781,701.3658 Q19.9063,699.7095 22.4063,699.7095 Q23.1094,699.7095 23.75,699.8658 Q24.4063,700.022 24.9688,700.3189 L24.9688,703.0377 Q24.3438,702.4595 23.75,702.1939 Q23.1563,701.9127 22.5313,701.9127 Q21.1875,701.9127 20.5,702.9908 Q19.8125,704.0533 19.8125,706.147 Q19.8125,708.2408 20.5,709.3189 Q21.1875,710.3814 22.5313,710.3814 Q23.1563,710.3814 23.75,710.1158 Q24.3438,709.8345 24.9688,709.2564 L24.9688,711.9752 Z " fill="#000000"/><text fill="#D9B8FF" font-family="Helvetica" font-size="17" lengthAdjust="spacing" textLength="272" x="41" y="712.2198">kubernetes_csi_storage_capacity</text></g><!--class kubernetes_resource--><g id="elem_kubernetes_resource"><rect codeLine="24" fill="#3D176E" height="126.6797" id="kubernetes_resource" rx="2.5" ry="2.5" style="stroke:#000D19;stroke-width:0.5;" width="239" x="44.5" y="438.76"/><ellipse cx="69.85" cy="458.6545" fill="#ADD1B2" rx="11" ry="11" style="stroke:#181818;stroke-width:1.0;"/><path d="M72.8188,464.2952 Q72.2406,464.592 71.6,464.7327 Q70.9594,464.8889 70.2563,464.8889 Q67.7563,464.8889 66.4281,463.2483 Q65.1156,461.592 65.1156,458.467 Q65.1156,455.342 66.4281,453.6858 Q67.7563,452.0295 70.2563,452.0295 Q70.9594,452.0295 71.6,452.1858 Q72.2563,452.342 72.8188,452.6389 L72.8188,455.3577 Q72.1938,454.7795 71.6,454.5139 Q71.0063,454.2327 70.3813,454.2327 Q69.0375,454.2327 68.35,455.3108 Q67.6625,456.3733 67.6625,458.467 Q67.6625,460.5608 68.35,461.6389 Q69.0375,462.7014 70.3813,462.7014 Q71.0063,462.7014 71.6,462.4358 Q72.1938,462.1545 72.8188,461.5764 L72.8188,464.2952 Z " fill="#000000"/><text fill="#D9B8FF" font-family="Helvetica" font-size="17" lengthAdjust="spacing" textLength="174" x="91.15" y="464.5398">kubernetes_resource</text><line style="stroke:#000D19;stroke-width:0.5;" x1="45.5" x2="282.5" y1="478.5491" y2="478.5491"/><text fill="#D9B8FF" font-family="sans-serif" font-size="14" font-weight="bold" lengthAdjust="spacing" textLength="46" x="55.5" y="500.5442">labels</text><text fill="#D9B8FF" font-family="sans-serif" font-size="14" lengthAdjust="spacing" textLength="171" x="101.5" y="500.5442">: dictionary[string, string]</text><text fill="#D9B8FF" font-family="sans-serif" font-size="14" font-weight="bold" lengthAdjust="spacing" textLength="90" x="55.5" y="526.8411">namespace</text><text fill="#D9B8FF" font-family="sans-serif" font-size="14" lengthAdjust="spacing" textLength="48" x="145.5" y="526.8411">: string</text><text fill="#D9B8FF" font-family="sans-serif" font-size="14" font-weight="bold" lengthAdjust="spacing" textLength="138" x="55.5" y="553.1379">resource_version</text><text fill="#D9B8FF" font-family="sans-serif" font-size="14" lengthAdjust="spacing" textLength="48" x="193.5" y="553.1379">: string</text></g><!--class resource--><g id="elem_resource"><rect codeLine="29" fill="#3D176E" height="310.7578" id="resource" rx="2.5" ry="2.5" style="stroke:#000D19;stroke-width:0.5;" width="227" x="50.5" y="7"/><ellipse cx="119.25" cy="26.8945" fill="#ADD1B2" rx="11" ry="11" style="stroke:#181818;stroke-width:1.0;"/><path d="M122.2188,32.5352 Q121.6406,32.832 121,32.9727 Q120.3594,33.1289 119.6563,33.1289 Q117.1563,33.1289 115.8281,31.4883 Q114.5156,29.832 114.5156,26.707 Q114.5156,23.582 115.8281,21.9258 Q117.1563,20.2695 119.6563,20.2695 Q120.3594,20.2695 121,20.4258 Q121.6563,20.582 122.2188,20.8789 L122.2188,23.5977 Q121.5938,23.0195 121,22.7539 Q120.4063,22.4727 119.7813,22.4727 Q118.4375,22.4727 117.75,23.5508 Q117.0625,24.6133 117.0625,26.707 Q117.0625,28.8008 117.75,29.8789 Q118.4375,30.9414 119.7813,30.9414 Q120.4063,30.9414 121,30.6758 Q121.5938,30.3945 122.2188,29.8164 L122.2188,32.5352 Z " fill="#000000"/><text fill="#D9B8FF" font-family="Helvetica" font-size="17" lengthAdjust="spacing" textLength="71" x="144.75" y="32.7798">resource</text><line style="stroke:#000D19;stroke-width:0.5;" x1="51.5" x2="276.5" y1="46.7891" y2="46.7891"/><text fill="#D9B8FF" font-family="sans-serif" font-size="14" font-weight="bold" lengthAdjust="spacing" textLength="29" x="61.5" y="68.7842">age</text><text fill="#D9B8FF" font-family="sans-serif" font-size="14" lengthAdjust="spacing" textLength="66" x="90.5" y="68.7842">: duration</text><text fill="#D9B8FF" font-family="sans-serif" font-size="14" font-weight="bold" lengthAdjust="spacing" textLength="43" x="61.5" y="95.0811">atime</text><text fill="#D9B8FF" font-family="sans-serif" font-size="14" lengthAdjust="spacing" textLength="70" x="104.5" y="95.0811">: datetime</text><text fill="#D9B8FF" font-family="sans-serif" font-size="14" font-weight="bold" lengthAdjust="spacing" textLength="43" x="61.5" y="121.3779">ctime</text><text fill="#D9B8FF" font-family="sans-serif" font-size="14" lengthAdjust="spacing" textLength="70" x="104.5" y="121.3779">: datetime</text><text fill="#D9B8FF" font-family="sans-serif" font-size="14" font-weight="bold" lengthAdjust="spacing" textLength="14" x="61.5" y="147.6748">id</text><text fill="#D9B8FF" font-family="sans-serif" font-size="14" lengthAdjust="spacing" textLength="48" x="75.5" y="147.6748">: string</text><text fill="#D9B8FF" font-family="sans-serif" font-size="14" font-weight="bold" lengthAdjust="spacing" textLength="33" x="61.5" y="173.9717">kind</text><text fill="#D9B8FF" font-family="sans-serif" font-size="14" lengthAdjust="spacing" textLength="48" x="94.5" y="173.9717">: string</text><text fill="#D9B8FF" font-family="sans-serif" font-size="14" font-weight="bold" lengthAdjust="spacing" textLength="90" x="61.5" y="200.2686">last_access</text><text fill="#D9B8FF" font-family="sans-serif" font-size="14" lengthAdjust="spacing" textLength="66" x="151.5" y="200.2686">: duration</text><text fill="#D9B8FF" font-family="sans-serif" font-size="14" font-weight="bold" lengthAdjust="spacing" textLength="90" x="61.5" y="226.5654">last_update</text><text fill="#D9B8FF" font-family="sans-serif" font-size="14" lengthAdjust="spacing" textLength="66" x="151.5" y="226.5654">: duration</text><text fill="#D9B8FF" font-family="sans-serif" font-size="14" font-weight="bold" lengthAdjust="spacing" textLength="48" x="61.5" y="252.8623">mtime</text><text fill="#D9B8FF" font-family="sans-serif" font-size="14" lengthAdjust="spacing" textLength="70" x="109.5" y="252.8623">: datetime</text><text fill="#D9B8FF" font-family="sans-serif" font-size="14" font-weight="bold" lengthAdjust="spacing" textLength="43" x="61.5" y="279.1592">name</text><text fill="#D9B8FF" font-family="sans-serif" font-size="14" lengthAdjust="spacing" textLength="48" x="104.5" y="279.1592">: string</text><text fill="#D9B8FF" font-family="sans-serif" font-size="14" font-weight="bold" lengthAdjust="spacing" textLength="34" x="61.5" y="305.4561">tags</text><text fill="#D9B8FF" font-family="sans-serif" font-size="14" lengthAdjust="spacing" textLength="171" x="95.5" y="305.4561">: dictionary[string, string]</text></g><!--reverse link kubernetes_resource to kubernetes_csi_storage_capacity--><g id="link_kubernetes_resource_kubernetes_csi_storage_capacity"><path codeLine="41" d="M164,583.7 C164,625.23 164,658.95 164,686.31 " fill="none" id="kubernetes_resource-backto-kubernetes_csi_storage_capacity" style="stroke:#FFAF37;stroke-width:2.0;"/><polygon fill="none" points="164,565.7,158,583.7,170,583.7,164,565.7" style="stroke:#FFAF37;stroke-width:2.0;"/></g><!--reverse link resource to kubernetes_resource--><g id="link_resource_kubernetes_resource"><path codeLine="42" d="M164,335.91 C164,378.46 164,404.24 164,438.32 " fill="none" id="resource-backto-kubernetes_resource" style="stroke:#FFAF37;stroke-width:2.0;"/><polygon fill="none" points="164,317.91,158,335.91,170,335.91,164,317.91" style="stroke:#FFAF37;stroke-width:2.0;"/></g><!--SRC=[XPDDJy9048Rl_8fDl159GAA0yO8aHY_4g3TZcc5tMZQqkyti58FAVtUNYka77wSsx_jqtfdfxb8h59Zbl14PPWiart4hRN8WoCIKo7xER6f9NCGnnCDHqtomXiy2SyXGF6AwHjOIciJRKikLGUV4LSMw1xbAo1P6bUMPm3XleU4ADKl1kIapwKN1M6b6JHRZE6wIpQ8NGpKOtM0BiwIG_f1-lwy6aoPoDkhatF_4g_v2CQWkRMuPMsss8dRKoIu3KMcoDUZUFzhZCoYbJIAkAzfBsHCPf9h-kWHbFmCTG-ggCOwHqF8cnrbhAfoCLJmw23yTWsNOd5WL_g0QP7IHT3foR0aIZ2Ja8BK_oT-TRPiaTBOWYTxjTbDOOEgwtLkXj6Hj3T3ctVbpP99BKJu_F6RyTlofanZ8KlRglbAqzjV5VrinzxcrCD_RBgaW2551OPsL6Z26Tw_90vfMjM2_gRhWipW2AVtjQIJid28FjHfETY0dp5ahp92SsywsSsYvTp-zNk_S3-eSn_VEBm00]--></g></svg>

<svg xmlns="http://www.w3.org/2000/svg" width="328" height="732" viewBox="0 0 328 732"><rect width="314" height="39.789" x="7" y="686.44" fill="#3D176E" rx="2.5" ry="2.5" style="stroke:#000d19;stroke-width:.5"/><circle cx="22" cy="706.335" r="11" fill="#ADD1B2" style="stroke:#181818;stroke-width:1"/><path d="M24.969 711.975q-.578.297-1.219.438-.64.156-1.344.156-2.5 0-3.828-1.64-1.312-1.657-1.312-4.782t1.312-4.781q1.328-1.656 3.828-1.656.703 0 1.344.156.656.156 1.219.453v2.719q-.625-.578-1.219-.844-.594-.281-1.219-.281-1.343 0-2.031 1.078-.687 1.062-.687 3.156t.687 3.172q.688 1.062 2.031 1.062.625 0 1.219-.265.594-.281 1.219-.86z"/><text x="41" y="712.22" fill="#D9B8FF" font-family="Helvetica" font-size="17" textLength="272">kubernetes_csi_storage_capacity</text><rect width="239" height="126.68" x="44.5" y="438.76" fill="#3D176E" rx="2.5" ry="2.5" style="stroke:#000d19;stroke-width:.5"/><circle cx="69.85" cy="458.654" r="11" fill="#ADD1B2" style="stroke:#181818;stroke-width:1"/><path d="M72.819 464.295q-.578.297-1.219.438-.64.156-1.344.156-2.5 0-3.828-1.64-1.312-1.657-1.312-4.782t1.312-4.781q1.328-1.656 3.828-1.656.703 0 1.344.156.656.156 1.219.453v2.719q-.625-.579-1.219-.844-.594-.281-1.219-.281-1.344 0-2.031 1.078-.687 1.062-.687 3.156t.687 3.172q.688 1.062 2.031 1.062.625 0 1.219-.265.594-.281 1.219-.86z"/><text x="91.15" y="464.54" fill="#D9B8FF" font-family="Helvetica" font-size="17" textLength="174">kubernetes_resource</text><path d="M45.5 478.549h237" style="stroke:#000d19;stroke-width:.5"/><text x="55.5" y="500.544" fill="#D9B8FF" font-family="sans-serif" font-size="14" font-weight="bold" textLength="46">labels</text><text x="101.5" y="500.544" fill="#D9B8FF" font-family="sans-serif" font-size="14" textLength="171">: dictionary[string, string]</text><text x="55.5" y="526.841" fill="#D9B8FF" font-family="sans-serif" font-size="14" font-weight="bold" textLength="90">namespace</text><text x="145.5" y="526.841" fill="#D9B8FF" font-family="sans-serif" font-size="14" textLength="48">: string</text><text x="55.5" y="553.138" fill="#D9B8FF" font-family="sans-serif" font-size="14" font-weight="bold" textLength="138">resource_version</text><text x="193.5" y="553.138" fill="#D9B8FF" font-family="sans-serif" font-size="14" textLength="48">: string</text><rect width="227" height="310.758" x="50.5" y="7" fill="#3D176E" rx="2.5" ry="2.5" style="stroke:#000d19;stroke-width:.5"/><circle cx="119.25" cy="26.895" r="11" fill="#ADD1B2" style="stroke:#181818;stroke-width:1"/><path d="M122.219 32.535q-.578.297-1.219.438-.64.156-1.344.156-2.5 0-3.828-1.64-1.312-1.657-1.312-4.782t1.312-4.781q1.328-1.656 3.828-1.656.703 0 1.344.156.656.156 1.219.453v2.719q-.625-.578-1.219-.844-.594-.281-1.219-.281-1.344 0-2.031 1.078-.687 1.062-.687 3.156t.687 3.172q.688 1.062 2.031 1.062.625 0 1.219-.265.594-.281 1.219-.86z"/><text x="144.75" y="32.78" fill="#D9B8FF" font-family="Helvetica" font-size="17" textLength="71">resource</text><path d="M51.5 46.789h225" style="stroke:#000d19;stroke-width:.5"/><text x="61.5" y="68.784" fill="#D9B8FF" font-family="sans-serif" font-size="14" font-weight="bold" textLength="29">age</text><text x="90.5" y="68.784" fill="#D9B8FF" font-family="sans-serif" font-size="14" textLength="66">: duration</text><text x="61.5" y="95.081" fill="#D9B8FF" font-family="sans-serif" font-size="14" font-weight="bold" textLength="43">atime</text><text x="104.5" y="95.081" fill="#D9B8FF" font-family="sans-serif" font-size="14" textLength="70">: datetime</text><text x="61.5" y="121.378" fill="#D9B8FF" font-family="sans-serif" font-size="14" font-weight="bold" textLength="43">ctime</text><text x="104.5" y="121.378" fill="#D9B8FF" font-family="sans-serif" font-size="14" textLength="70">: datetime</text><text x="61.5" y="147.675" fill="#D9B8FF" font-family="sans-serif" font-size="14" font-weight="bold" textLength="14">id</text><text x="75.5" y="147.675" fill="#D9B8FF" font-family="sans-serif" font-size="14" textLength="48">: string</text><text x="61.5" y="173.972" fill="#D9B8FF" font-family="sans-serif" font-size="14" font-weight="bold" textLength="33">kind</text><text x="94.5" y="173.972" fill="#D9B8FF" font-family="sans-serif" font-size="14" textLength="48">: string</text><text x="61.5" y="200.269" fill="#D9B8FF" font-family="sans-serif" font-size="14" font-weight="bold" textLength="90">last_access</text><text x="151.5" y="200.269" fill="#D9B8FF" font-family="sans-serif" font-size="14" textLength="66">: duration</text><text x="61.5" y="226.565" fill="#D9B8FF" font-family="sans-serif" font-size="14" font-weight="bold" textLength="90">last_update</text><text x="151.5" y="226.565" fill="#D9B8FF" font-family="sans-serif" font-size="14" textLength="66">: duration</text><text x="61.5" y="252.862" fill="#D9B8FF" font-family="sans-serif" font-size="14" font-weight="bold" textLength="48">mtime</text><text x="109.5" y="252.862" fill="#D9B8FF" font-family="sans-serif" font-size="14" textLength="70">: datetime</text><text x="61.5" y="279.159" fill="#D9B8FF" font-family="sans-serif" font-size="14" font-weight="bold" textLength="43">name</text><text x="104.5" y="279.159" fill="#D9B8FF" font-family="sans-serif" font-size="14" textLength="48">: string</text><text x="61.5" y="305.456" fill="#D9B8FF" font-family="sans-serif" font-size="14" font-weight="bold" textLength="34">tags</text><text x="95.5" y="305.456" fill="#D9B8FF" font-family="sans-serif" font-size="14" textLength="171">: dictionary[string, string]</text><path fill="none" d="M164 583.7v102.61m0-120.61-6 18h12zm0-229.79v102.41m0-120.41-6 18h12z" style="stroke:#ffaf37;stroke-width:2"/></svg>
